src/assets/AddBookmarkSVG.svg

<?xml version="1.0" encoding="UTF-8" standalone="no" ?>
<!DOCTYPE svg PUBLIC "-//W3C//DTD SVG 1.1//EN" "http://www.w3.org/Graphics/SVG/1.1/DTD/svg11.dtd">
<svg xmlns="http://www.w3.org/2000/svg" xmlns:xlink="http://www.w3.org/1999/xlink" version="1.1" width="1080" height="1080" viewBox="0 0 1080 1080" xml:space="preserve">
<desc>Created with Fabric.js 5.2.4</desc>
<defs>
</defs>
<rect x="0" y="0" width="100%" height="100%" fill="transparent"></rect>
<g transform="matrix(1 0 0 1 540 540)" id="1a001935-5e7a-43e0-a246-07f56bf6ad89"  >
<rect style="stroke: none; stroke-width: 1; stroke-dasharray: none; stroke-linecap: butt; stroke-dashoffset: 0; stroke-linejoin: miter; stroke-miterlimit: 4; fill: rgb(255,255,255); fill-rule: nonzero; opacity: 1; visibility: hidden;" vector-effect="non-scaling-stroke"  x="-540" y="-540" rx="0" ry="0" width="1080" height="1080" />
</g>
<g transform="matrix(1 0 0 1 540 540)" id="488597ae-5b0c-477b-92ad-e4aef1574efe"  >
</g>
<g transform="matrix(0 0 0 0 0 0)"  >
<g style=""   >
</g>
</g>
<g transform="matrix(1 0 0 1 50 50)"  >
<rect style="stroke: none; stroke-width: 1; stroke-dasharray: none; stroke-linecap: butt; stroke-dashoffset: 0; stroke-linejoin: miter; stroke-miterlimit: 4; fill: rgb(255,255,255); fill-opacity: 0; fill-rule: nonzero; opacity: 1;" vector-effect="non-scaling-stroke"  x="-50" y="-50" rx="0" ry="0" width="100" height="100" />
</g>
<g transform="matrix(1 0 0 1 540 540)"  >
<rect style="stroke: none; stroke-width: 1; stroke-dasharray: none; stroke-linecap: butt; stroke-dashoffset: 0; stroke-linejoin: miter; stroke-miterlimit: 4; fill: rgb(255,255,255); fill-rule: nonzero; opacity: 1; visibility: hidden;" vector-effect="non-scaling-stroke"  x="-540" y="-540" rx="0" ry="0" width="1080" height="1080" />
</g>
<g transform="matrix(1 0 0 14.26 67.08 540.5)" id="8075441e-14ca-447f-b825-d562d2eaf3ea"  >
<rect style="stroke: rgb(0,0,0); stroke-width: 0; stroke-dasharray: none; stroke-linecap: butt; stroke-dashoffset: 0; stroke-linejoin: miter; stroke-miterlimit: 4; fill: rgb(101,101,101); fill-rule: nonzero; opacity: 1;" vector-effect="non-scaling-stroke"  x="-33.0835" y="-33.0835" rx="0" ry="0" width="66.167" height="66.167" />
</g>
<g transform="matrix(1 0 0 10.71 1011.54 657.65)" id="8075441e-14ca-447f-b825-d562d2eaf3ea"  >
<rect style="stroke: rgb(0,0,0); stroke-width: 0; stroke-dasharray: none; stroke-linecap: butt; stroke-dashoffset: 0; stroke-linejoin: miter; stroke-miterlimit: 4; fill: rgb(101,101,101); fill-rule: nonzero; opacity: 1;" vector-effect="non-scaling-stroke"  x="-33.085" y="-33.085" rx="0" ry="0" width="66.17" height="66.17" />
</g>
<g transform="matrix(0 1 -10.81 0 421.12 62.99)" id="8075441e-14ca-447f-b825-d562d2eaf3ea"  >
<rect style="stroke: rgb(0,0,0); stroke-width: 0; stroke-dasharray: none; stroke-linecap: butt; stroke-dashoffset: 0; stroke-linejoin: miter; stroke-miterlimit: 4; fill: rgb(101,101,101); fill-rule: nonzero; opacity: 1;" vector-effect="non-scaling-stroke"  x="-33.085" y="-33.085" rx="0" ry="0" width="66.17" height="66.17" />
</g>
<g transform="matrix(2.9 0 0 2.9 945.38 133.96)" id="1058145d-a771-4d69-b162-392e531e962f"  >
<path style="stroke: rgb(0,0,0); stroke-width: 0; stroke-dasharray: none; stroke-linecap: butt; stroke-dashoffset: 0; stroke-linejoin: miter; stroke-miterlimit: 4; fill: rgb(101,101,101); fill-rule: nonzero; opacity: 1;" vector-effect="non-scaling-stroke"  transform=" translate(-50, -50)" d="M 40.747 13.955 L 59.254000000000005 13.955 C 60.353 13.955 61.242000000000004 14.845 61.242000000000004 15.941 L 61.242000000000004 38.787 L 84.08600000000001 38.787 C 85.18400000000001 38.787 86.07000000000001 39.675 86.07000000000001 40.772999999999996 L 86.07000000000001 59.226 C 86.07000000000001 60.324999999999996 85.183 61.211999999999996 84.08600000000001 61.211999999999996 L 61.242 61.211999999999996 L 61.242 84.05799999999999 C 61.242 85.157 60.352 86.044 59.254 86.044 L 40.747 86.044 C 39.652 86.044 38.762 85.15599999999999 38.762 84.05799999999999 L 38.762 61.213 L 15.915 61.213 C 14.819999999999999 61.213 13.93 60.325 13.93 59.227000000000004 L 13.93 40.773 C 13.93 39.67400000000001 14.82 38.787000000000006 15.915 38.787000000000006 L 38.762 38.787000000000006 L 38.762 15.941 C 38.762 14.845 39.651 13.955 40.747 13.955 z" stroke-linecap="round" />
</g>
<g transform="matrix(0.49 0.87 -7.3 4.08 303.79 896.54)" id="8075441e-14ca-447f-b825-d562d2eaf3ea"  >
<rect style="stroke: rgb(0,0,0); stroke-width: 0; stroke-dasharray: none; stroke-linecap: butt; stroke-dashoffset: 0; stroke-linejoin: miter; stroke-miterlimit: 4; fill: rgb(101,101,101); fill-rule: nonzero; opacity: 1;" vector-effect="non-scaling-stroke"  x="-33.085" y="-33.085" rx="0" ry="0" width="66.17" height="66.17" />
</g>
<g transform="matrix(1 0 0 1.16 67.62 1020.72)" id="e9c8eaf9-6bf0-423b-ba73-a54841385148"  >
<circle style="stroke: rgb(0,0,0); stroke-width: 0; stroke-dasharray: none; stroke-linecap: butt; stroke-dashoffset: 0; stroke-linejoin: miter; stroke-miterlimit: 4; fill: rgb(101,101,101); fill-rule: nonzero; opacity: 1;" vector-effect="non-scaling-stroke"  cx="0" cy="0" r="35" />
</g>
<g transform="matrix(0.93 0 0 0.94 541.53 763.2)" id="e9c8eaf9-6bf0-423b-ba73-a54841385148"  >
<circle style="stroke: rgb(0,0,0); stroke-width: 0; stroke-dasharray: none; stroke-linecap: butt; stroke-dashoffset: 0; stroke-linejoin: miter; stroke-miterlimit: 4; fill: rgb(101,101,101); fill-rule: nonzero; opacity: 1;" vector-effect="non-scaling-stroke"  cx="0" cy="0" r="35" />
</g>
<g transform="matrix(-0.49 0.87 -7.14 -4.02 775.12 896.08)" id="8075441e-14ca-447f-b825-d562d2eaf3ea"  >
<rect style="stroke: rgb(0,0,0); stroke-width: 0; stroke-dasharray: none; stroke-linecap: butt; stroke-dashoffset: 0; stroke-linejoin: miter; stroke-miterlimit: 4; fill: rgb(101,101,101); fill-rule: nonzero; opacity: 1;" vector-effect="non-scaling-stroke"  x="-33.085" y="-33.085" rx="0" ry="0" width="66.17" height="66.17" />
</g>
<g transform="matrix(1 0 0 1.16 1010.62 1020.55)" id="e9c8eaf9-6bf0-423b-ba73-a54841385148"  >
<circle style="stroke: rgb(0,0,0); stroke-width: 0; stroke-dasharray: none; stroke-linecap: butt; stroke-dashoffset: 0; stroke-linejoin: miter; stroke-miterlimit: 4; fill: rgb(101,101,101); fill-rule: nonzero; opacity: 1;" vector-effect="non-scaling-stroke"  cx="0" cy="0" r="35" />
</g>
<g transform="matrix(0.96 0 0 1.16 1012.05 299.55)" id="e9c8eaf9-6bf0-423b-ba73-a54841385148"  >
<circle style="stroke: rgb(0,0,0); stroke-width: 0; stroke-dasharray: none; stroke-linecap: butt; stroke-dashoffset: 0; stroke-linejoin: miter; stroke-miterlimit: 4; fill: rgb(101,101,101); fill-rule: nonzero; opacity: 1;" vector-effect="non-scaling-stroke"  cx="0" cy="0" r="35" />
</g>
<g transform="matrix(0 0.96 -1.16 0 779.16 62.82)" id="e9c8eaf9-6bf0-423b-ba73-a54841385148"  >
<circle style="stroke: rgb(0,0,0); stroke-width: 0; stroke-dasharray: none; stroke-linecap: butt; stroke-dashoffset: 0; stroke-linejoin: miter; stroke-miterlimit: 4; fill: rgb(101,101,101); fill-rule: nonzero; opacity: 1;" vector-effect="non-scaling-stroke"  cx="0" cy="0" r="35" />
</g>
<g transform="matrix(0.93 0 0 0.94 65.62 63.98)" id="e9c8eaf9-6bf0-423b-ba73-a54841385148"  >
<circle style="stroke: rgb(0,0,0); stroke-width: 0; stroke-dasharray: none; stroke-linecap: butt; stroke-dashoffset: 0; stroke-linejoin: miter; stroke-miterlimit: 4; fill: rgb(101,101,101); fill-rule: nonzero; opacity: 1;" vector-effect="non-scaling-stroke"  cx="0" cy="0" r="35" />
</g>
</svg>

<svg width="1100" height="1100" xmlns="http://www.w3.org/2000/svg">
 <g>
  <title>Layer 1</title>
  <desc>Created with Fabric.js 5.2.4</desc>

  <rect fill="transparent" height="100%" width="100%" y="0" x="0"/>
  <g id="svg_37" transform="matrix(1 0 0 1 540 540)">
   <rect fill-rule=" nonzero" fill=" rgb(255,255,255)" stroke-miterlimit="4" stroke-linejoin=" miter" stroke-dashoffset="0" stroke-linecap=" butt" stroke-dasharray=" none" stroke=" none" height="1080" width="1080" y="-540" x="-540" vector-effect="non-scaling-stroke"/>
  </g>
  <g id="svg_36" transform="matrix(1 0 0 1 540 540)"/>
  <g transform="matrix(0 0 0 0 0 0)">
   <g/>
  </g>
  <g transform="matrix(1 0 0 1 50 50)">
   <rect fill-rule=" nonzero" fill-opacity="0" fill=" rgb(255,255,255)" stroke-miterlimit="4" stroke-linejoin=" miter" stroke-dashoffset="0" stroke-linecap=" butt" stroke-dasharray=" none" stroke=" none" height="100" width="100" y="-50" x="-50" vector-effect="non-scaling-stroke"/>
  </g>
  <g transform="matrix(1 0 0 1 540 540)">
   <rect fill-rule=" nonzero" fill=" rgb(255,255,255)" stroke-miterlimit="4" stroke-linejoin=" miter" stroke-dashoffset="0" stroke-linecap=" butt" stroke-dasharray=" none" stroke=" none" height="1080" width="1080" y="-540" x="-540" vector-effect="non-scaling-stroke"/>
  </g>
  <g id="svg_34" transform="matrix(1 0 0 14.26 67.08 540.5)">
   <rect fill-rule=" nonzero" fill=" rgb(101,101,101)" stroke-miterlimit="4" stroke-linejoin=" miter" stroke-dashoffset="0" stroke-linecap=" butt" stroke-dasharray=" none" stroke-width="0" stroke=" rgb(0,0,0)" height="66.167" width="66.167" y="-33.0835" x="-33.0835" vector-effect="non-scaling-stroke"/>
  </g>
  <g id="8075441e-14ca-447f-b825-d562d2eaf3ea" transform="matrix(1 0 0 8.10584 1011.54 744.317)">
   <rect fill-rule=" nonzero" fill=" rgb(101,101,101)" stroke-miterlimit="4" stroke-linejoin=" miter" stroke-dashoffset="0" stroke-linecap=" butt" stroke-dasharray=" none" stroke-width="0" stroke=" rgb(0,0,0)" height="66.17" width="66.17" y="-33.085" x="-33.085" vector-effect="non-scaling-stroke"/>
  </g>
  <g id="8075441e-14ca-447f-b825-d562d2eaf3ea" transform="matrix(0 1 -8.40692 0 341.12 62.99)">
   <rect fill-rule=" nonzero" fill=" rgb(101,101,101)" stroke-miterlimit="4" stroke-linejoin=" miter" stroke-dashoffset="0" stroke-linecap=" butt" stroke-dasharray=" none" stroke-width="0" stroke=" rgb(0,0,0)" height="66.17" width="66.17" y="-33.085" x="-33.085" vector-effect="non-scaling-stroke"/>
  </g>
  <g id="svg_35" transform="matrix(5.28292 0 0 5.28292 857.602 221.678)">
   <path fill-rule=" nonzero" fill=" rgb(101,101,101)" stroke-miterlimit="4" stroke-linejoin=" miter" stroke-dashoffset="0" stroke-dasharray=" none" stroke-width="0" stroke=" rgb(0,0,0)" stroke-linecap=" butt" d="m40.747,13.955l18.507,0c1.099,0 1.988,0.89 1.988,1.986l0,22.846l22.844,0c1.098,0 1.984,0.888 1.984,1.986l0,18.453c0,1.099 -0.887,1.986 -1.984,1.986l-22.844,0l0,22.846c0,1.099 -0.89,1.986 -1.988,1.986l-18.507,0c-1.095,0 -1.985,-0.888 -1.985,-1.986l0,-22.845l-22.847,0c-1.095,0 -1.985,-0.888 -1.985,-1.986l0,-18.454c0,-1.099 0.89,-1.986 1.985,-1.986l22.847,0l0,-22.846c0,-1.096 0.889,-1.986 1.985,-1.986z" transform=" translate(-50, -50)" vector-effect="non-scaling-stroke"/>
  </g>
  <g id="8075441e-14ca-447f-b825-d562d2eaf3ea" transform="matrix(0.49 0.87 -7.3 4.08 303.79 896.54)">
   <rect fill-rule=" nonzero" fill=" rgb(101,101,101)" stroke-miterlimit="4" stroke-linejoin=" miter" stroke-dashoffset="0" stroke-linecap=" butt" stroke-dasharray=" none" stroke-width="0" stroke=" rgb(0,0,0)" height="66.17" width="66.17" y="-33.085" x="-33.085" vector-effect="non-scaling-stroke"/>
  </g>
  <g id="svg_33" transform="matrix(1 0 0 1.16 67.62 1020.72)">
   <circle fill-rule=" nonzero" fill=" rgb(101,101,101)" stroke-miterlimit="4" stroke-linejoin=" miter" stroke-dashoffset="0" stroke-linecap=" butt" stroke-dasharray=" none" stroke-width="0" stroke=" rgb(0,0,0)" r="35" cy="0" cx="0" vector-effect="non-scaling-stroke"/>
  </g>
  <g id="e9c8eaf9-6bf0-423b-ba73-a54841385148" transform="matrix(0.93 0 0 0.94 541.53 763.2)">
   <circle fill-rule=" nonzero" fill=" rgb(101,101,101)" stroke-miterlimit="4" stroke-linejoin=" miter" stroke-dashoffset="0" stroke-linecap=" butt" stroke-dasharray=" none" stroke-width="0" stroke=" rgb(0,0,0)" r="35" cy="0" cx="0" vector-effect="non-scaling-stroke"/>
  </g>
  <g id="8075441e-14ca-447f-b825-d562d2eaf3ea" transform="matrix(-0.49 0.87 -7.14 -4.02 775.12 896.08)">
   <rect fill-rule=" nonzero" fill=" rgb(101,101,101)" stroke-miterlimit="4" stroke-linejoin=" miter" stroke-dashoffset="0" stroke-linecap=" butt" stroke-dasharray=" none" stroke-width="0" stroke=" rgb(0,0,0)" height="66.17" width="66.17" y="-33.085" x="-33.085" vector-effect="non-scaling-stroke"/>
  </g>
  <g id="e9c8eaf9-6bf0-423b-ba73-a54841385148" transform="matrix(1 0 0 1.16 1010.62 1020.55)">
   <circle fill-rule=" nonzero" fill=" rgb(101,101,101)" stroke-miterlimit="4" stroke-linejoin=" miter" stroke-dashoffset="0" stroke-linecap=" butt" stroke-dasharray=" none" stroke-width="0" stroke=" rgb(0,0,0)" r="35" cy="0" cx="0" vector-effect="non-scaling-stroke"/>
  </g>
  <g id="e9c8eaf9-6bf0-423b-ba73-a54841385148" transform="matrix(0.96 0 0 1.16 1012.05 299.55)">
   <circle fill-rule=" nonzero" fill=" rgb(101,101,101)" stroke-miterlimit="4" stroke-linejoin=" miter" stroke-dashoffset="0" stroke-linecap=" butt" stroke-dasharray=" none" stroke-width="0" stroke=" rgb(0,0,0)" r="35" cy="153.2567" cx="0" vector-effect="non-scaling-stroke"/>
  </g>
  <g id="e9c8eaf9-6bf0-423b-ba73-a54841385148" transform="matrix(0 0.96 -1.16 0 779.16 62.82)">
   <circle fill-rule=" nonzero" fill=" rgb(101,101,101)" stroke-miterlimit="4" stroke-linejoin=" miter" stroke-dashoffset="0" stroke-linecap=" butt" stroke-dasharray=" none" stroke-width="0" stroke=" rgb(0,0,0)" r="35" cy="134.09961" cx="0" vector-effect="non-scaling-stroke"/>
  </g>
  <g id="e9c8eaf9-6bf0-423b-ba73-a54841385148" transform="matrix(0.93 0 0 0.94 65.62 63.98)">
   <circle fill-rule=" nonzero" fill=" rgb(101,101,101)" stroke-miterlimit="4" stroke-linejoin=" miter" stroke-dashoffset="0" stroke-linecap=" butt" stroke-dasharray=" none" stroke-width="0" stroke=" rgb(0,0,0)" r="35" cy="0" cx="0" vector-effect="non-scaling-stroke"/>
  </g>
 </g>

</svg>
